assets/icons/calendar/important.svg

<?xml version="1.0" encoding="UTF-8" standalone="no"?>
<svg
   viewBox="0 0 24 24"
   height="24"
   id="svg7384"
   version="1.1"
   width="24"
   sodipodi:docname="important.svg"
   inkscape:version="1.2 (1:1.2.1+202207142221+cd75a1ee6d)"
   xmlns:inkscape="http://www.inkscape.org/namespaces/inkscape"
   xmlns:sodipodi="http://sodipodi.sourceforge.net/DTD/sodipodi-0.dtd"
   xmlns="http://www.w3.org/2000/svg"
   xmlns:svg="http://www.w3.org/2000/svg"
   xmlns:rdf="http://www.w3.org/1999/02/22-rdf-syntax-ns#"
   xmlns:cc="http://creativecommons.org/ns#"
   xmlns:dc="http://purl.org/dc/elements/1.1/">
  <sodipodi:namedview
     id="namedview21"
     pagecolor="#ffffff"
     bordercolor="#666666"
     borderopacity="1.0"
     inkscape:pageshadow="2"
     inkscape:pageopacity="0.0"
     inkscape:pagecheckerboard="0"
     showgrid="true"
     inkscape:snap-page="true"
     inkscape:zoom="32"
     inkscape:cx="21.84375"
     inkscape:cy="12.109375"
     inkscape:window-width="1920"
     inkscape:window-height="1016"
     inkscape:window-x="0"
     inkscape:window-y="0"
     inkscape:window-maximized="1"
     inkscape:current-layer="svg7384"
     inkscape:showpageshadow="2"
     inkscape:deskcolor="#d1d1d1">
    <inkscape:grid
       type="xygrid"
       id="grid22"
       spacingx="1"
       spacingy="1"
       empspacing="5" />
    <inkscape:grid
       type="xygrid"
       id="grid839"
       dotted="true"
       spacingx="0.5"
       spacingy="0.5"
       empspacing="10" />
  </sodipodi:namedview>
  <metadata
     id="metadata20854">
    <rdf:RDF>
      <cc:Work
         rdf:about="">
        <dc:format>image/svg+xml</dc:format>
        <dc:type
           rdf:resource="http://purl.org/dc/dcmitype/StillImage" />
      </cc:Work>
    </rdf:RDF>
  </metadata>
  <defs
     id="defs7386">
    <linearGradient
       id="linearGradient5606"
       inkscape:swatch="solid">
      <stop
         id="stop5608"
         offset="0"
         style="stop-color:#000000;stop-opacity:1;" />
    </linearGradient>
    <linearGradient
       id="linearGradient4526"
       inkscape:swatch="solid">
      <stop
         id="stop4528"
         offset="0"
         style="stop-color:#ffffff;stop-opacity:1;" />
    </linearGradient>
    <linearGradient
       id="linearGradient3600-4"
       inkscape:swatch="gradient">
      <stop
         id="stop3602-7"
         offset="0"
         style="stop-color:#f4f4f4;stop-opacity:1" />
      <stop
         id="stop3604-6"
         offset="1"
         style="stop-color:#dbdbdb;stop-opacity:1" />
    </linearGradient>
  </defs>
  <path
     id="path874"
     style="color:#000000;fill:#808080;fill-opacity:1"
     d="M 8 2 L 8 3 L 9 3 L 9 2 L 8 2 z M 9 3 L 9 4 L 8 4 L 8 3 L 7 3 C 5.9583354 3 5.0016946 3.1146082 4.2421875 3.5703125 C 3.4826804 4.0260168 3 4.8750022 3 6 L 3 10 L 3 18 C 3 18.140625 3.0068004 18.276433 3.0214844 18.408203 C 3.0361664 18.539973 3.0593317 18.668558 3.0878906 18.791016 C 3.1164496 18.913473 3.1517266 19.029891 3.1933594 19.142578 C 3.2349923 19.255265 3.2820355 19.364338 3.3359375 19.466797 C 3.3898394 19.569255 3.4502577 19.666042 3.515625 19.757812 C 3.5809919 19.849582 3.6524872 19.934998 3.7285156 20.015625 C 3.8045445 20.096255 3.8848177 20.17121 3.9707031 20.240234 C 4.056589 20.309254 4.1472491 20.372725 4.2421875 20.429688 C 5.0016946 20.885391 5.9583354 21 7 21 L 13.267578 21 A 5.5 5.5 0 0 1 12.613281 20 L 7 20 C 6.0416686 20 5.2483028 19.864607 4.7578125 19.570312 C 4.2673222 19.276019 4 18.874998 4 18 L 4 10 C 4 9.1250018 4.2673222 8.7239817 4.7578125 8.4296875 C 5.2483028 8.1353933 6.0416686 8 7 8 L 17 8 C 17.958331 8 18.751697 8.1353933 19.242188 8.4296875 C 19.732677 8.7239817 20 9.1250018 20 10 L 20 12.603516 A 5.5 5.5 0 0 1 21 13.257812 L 21 10 L 21 6 C 21 4.8750022 20.517322 4.0260168 19.757812 3.5703125 C 18.998307 3.1146082 18.041665 3 17 3 L 16 3 L 16 4 L 15 4 L 15 3 L 9 3 z M 15 3 L 16 3 L 16 2 L 15 2 L 15 3 z " />
  <path
     id="path981"
     style="fill:#808080;fill-opacity:1;fill-rule:evenodd;stroke-width:0.5;stroke-linecap:round;stroke-linejoin:round"
     d="M 17.5 13 C 15.014723 13 13 15.014723 13 17.5 C 13 19.985277 15.014723 22 17.5 22 C 19.985277 22 22 19.985277 22 17.5 C 22 15.014723 19.985277 13 17.5 13 z M 17 15 L 18 15 L 18 17 L 17.800781 18 L 17.199219 18 L 17 17 L 17 15 z M 17.5 19 A 0.5 0.5 0 0 1 18 19.5 A 0.5 0.5 0 0 1 17.5 20 A 0.5 0.5 0 0 1 17 19.5 A 0.5 0.5 0 0 1 17.5 19 z " />
</svg>

<svg height="24" width="24" xmlns="http://www.w3.org/2000/svg"><path style="color:#000;fill:gray;fill-opacity:1" d="M8 2v1h1V2H8zm1 1v1H8V3H7c-1.042 0-1.998.115-2.758.57C3.482 4.026 3 4.875 3 6v12a3.299 3.299 0 0 0 .193 1.143 2.54 2.54 0 0 0 .535.873 2.394 2.394 0 0 0 .514.414c.76.455 1.716.57 2.758.57h6.268a5.5 5.5 0 0 1-.655-1H7c-.958 0-1.752-.135-2.242-.43C4.268 19.276 4 18.875 4 18v-8c0-.875.267-1.276.758-1.57C5.248 8.135 6.042 8 7 8h10c.958 0 1.752.135 2.242.43.49.294.758.695.758 1.57v2.604a5.5 5.5 0 0 1 1 .654V6c0-1.125-.483-1.974-1.242-2.43C18.998 3.115 18.042 3 17 3h-1v1h-1V3H9zm6 0h1V2h-1v1z"/><path style="fill:gray;fill-opacity:1;stroke-width:.5;stroke-linecap:round;stroke-linejoin:round" d="M17.5 13a4.5 4.5 0 1 0 0 9 4.5 4.5 0 0 0 0-9zm-.5 2h1v2l-.2 1h-.6l-.2-1v-2zm.5 4a.5.5 0 0 1 .5.5.5.5 0 0 1-.5.5.5.5 0 0 1-.5-.5.5.5 0 0 1 .5-.5z"/></svg>
